X: 34823
T: Road To Tralee, The
R: slide
M: 12/8
K: Dmajor
|:ABA A2F DED D2F|ABA AGF G3 B2F|
ABA A2F DED D2F|EFE E2F G3 B3:|
|:ABc d2B cBA BAF|ABc d2c B3 e3|
ABc d2B cBA BAF|EFE E2F G3 B3:|

